www/assets/icons/print_disabled.svg

<svg width="24" height="24" viewBox="0 0 24 24" xmlns="http://www.w3.org/2000/svg" fill='currentColor'><g clip-path="url(#clip0_1616_2823)"><path d="M20 16.0999H22.9V10.0999C22.9 8.3999 21.6 7.0999 19.9 7.0999H10.9L20 16.0999ZM19.9 9.0999C20.45 9.0999 20.9 9.5499 20.9 10.0999C20.9 10.6499 20.45 11.0999 19.9 11.0999C19.35 11.0999 18.9 10.6499 18.9 10.0999C18.9 9.5499 19.35 9.0999 19.9 9.0999ZM18.9 6.0999V2.0999H6.89999V3.1999L9.89999 6.0999H18.9ZM2.09999 0.899902L0.899994 2.0999L5.79999 7.0999C4.19999 7.1999 2.89999 8.4999 2.89999 10.0999V16.0999H6.89999V20.0999H18.8L21.8 23.0999L23.1 21.7999L2.09999 0.899902ZM8.89999 18.0999V13.0999H11.8L16.8 18.0999H8.89999Z"/></g><defs><clipPath id="clip0_1616_2823"><rect width="24" height="24"/></clipPath></defs></svg>

<svg xmlns="http://www.w3.org/2000/svg" width="24" height="24" viewBox="0 0 24 24" fill='currentColor'><g clip-path="url(#a)"><path d="M20 16.1h2.9v-6c0-1.7-1.3-3-3-3h-9zm-.1-7c.55 0 1 .45 1 1s-.45 1-1 1-1-.45-1-1 .45-1 1-1m-1-3v-4h-12v1.1l3 2.9zM2.1.9.9 2.1l4.9 5c-1.6.1-2.9 1.4-2.9 3v6h4v4h11.9l3 3 1.3-1.3zm6.8 17.2v-5h2.9l5 5z"/></g><defs><clipPath id="a"><path d="M0 0h24v24H0z"/></clipPath></defs></svg>
